!!!COM: Schubert, Franz
!!!CNT: Deutscher
!!!TXO: Deutsch
!!!OTL: "Trockne Blumen"
!!!OPR: Die schoene Muellerin
!!!LYR: Mu2ller, Wilhelm
!!!OPS: Opus 25
!!!ONM: No. 18
!!!ODT: 1823/
!!NB: Vocal melody only encoded.
**kern	**silbe
*clefG2	*
*k[f#]	*
*M2/4	*
*MM[langsam]	*
=2	=2
4r	.
8.r	.
{16b	{Ihr
=3	=3
8.b	Blu2m-
16b	-lein
8ee	al-
16ee	-le,
16ee	die
=4	=4
16g	sie
16f#	|
16g	mir
16a	|
8.b}	gab,}
{16b	{euch
=5	=5
8.b	soll
16b	man
8dd	le-
16dd	-gen
16dd	mit
=6	=6
16a	mir
16cc	|
16b	in's
16a	|
8.g}	Grab.}
{16b	{Wie
=7	=7
8.b	seht
16b	ihr
8ee	al-
16ee	-le
16ee	mich
=8	=8
16g	an
16f#	|
16g	so
16a	|
8.b}	weh,}
{16b	{als
=9	=9
8.b	ob
16b	ihr
8ee	wu2s-
16dd	-stet,
16dd	wie
=10	=10
16a	mir
16cc	|
16b	ge-
16a	|
8.b}	-scheh'?}
{16b	{Ihr
=11	=11
16b	Blu2m-
16f#	|
16f#	-lein
16b	|
16b	al-
16g	|
16g	-le,
16b	wie
=12	=12
8dd	welk,
16ee	wie
16cc	|
8.b}	blass?}
{16b	{ihr
=13	=13
16b	Blu2m-
16f#	|
16f#	-lein
16b	|
16b	al-
16g	|
16g	-le,
16b	wo-
=14	=14
8.ee	-von
16dd#	so
[4ff#	nass?
=15	=15
4ff#]}	|}
4r	.
=16	=16
4r	.
8.r	.
{16b	{Ach,
=17	=17
8.b	Thra2-
16b	-nen
8ee	mach-
16ee	-en
16ee	nicht
=18	=18
16g	mai-
16f#	|
16g	-en-
16a	|
8b}	-gru2n,}
{16b	{mach-
16b	-en
=19	=19
8.b	to-
16b	-dte
8dd	Lei-
16dd	-be
16dd	nicht
=20	=20
16a	wie-
16cc	|
16b	-der
16a	|
8.g}	blu2h'n,}
{16b	{und
=21	=21
8.b	Lenz
16b	wird
16b	kom-
16ee	|
16ee	-men,
16ee	und
=22	=22
16g	Win-
16f#	|
16g	-ter
32a	wird
32cc	|
8.b}	geh'n,}
{16b	{und
=23	=23
8.b	Blu2m-
16b	-lein
8ee	wer-
16dd	-den
16dd	im
=24	=24
16a	Gra-
16cc	|
16b	-se-
16a	|
8.b}	-steh'n,}
{16b	{und
=25	=25
16b	Blu2m-
16f#	|
16f#	-lein
16b	|
16b	lie-
16g	|
16g	-gen
16b	in
=26	=26
8dd	mei-
16ee	-nem
16cc	|
8.b}	Grab,}
{16b	{die
=27	=27
16b	Blu2m-
16f#	|
16f#	-lein
16b	|
16b	al-
16g	|
16g	-le,
16b	die
=28	=28
8.ff#	sie
16ee	mir
4dd#}	gab.}
=30	=30
*k[f#c#g#d#]	*
4r	.
8.r	.
{16b	{Und
=31	=31
8.b	wenn
16cc#	sie
16.b	wand-
32a#	|
16g#	-elt
16b	am
=32	=32
8b	Hu2-
16b	-gel
16cc#	vor-
8.b}	-bei}
{16b	{und
=33	=33
8.b#	denkt
16b#	im
8cc#	Her-
16cc#	-zen,
16ee	der
=34	=34
8.b#	meint'
16b#	es
8.cc#}	treu!}
{16cc#	{dann
=35	=35
8.cc#	Blu2m-
16cc#	-lein
8ee	al-
16b	-le
16b	her-
=36	=36
8.cc#	-aus,
16cc#	her-
8.ee}	-aus!}
{16ee	{der
=37	=37
8.ee	Mai
16ee	ist
8gg#	kom-
16ff#	-men,
16ee	der
=38	=38
8ff#	Win-
16ee	-ter
16dd#	ist
8.ee}	aus.}
16r	.
=39	=39
4r	.
8.r	.
{16b	{Und
=40	=40
8.b	wenn
16cc#	sie
16.b	wan-
32a#	|
16g#	-delt
16b	am
=41	=41
8b	Hu2-
16b	-gel
16cc#	vor-
8.b}	-bei,}
{16b	{und
=42	=42
8.b#	denkt
16b#	im
8cc#	Her-
16cc#	-zen,
16ee	der
=43	=43
8.b#	meint'
16b#	es
8.cc#}	treu!}
{16cc#	{dann
=44	=44
8.cc#	Blu2m-
16cc#	-lein
8ee	al-
16b	-le
16b	her-
=45	=45
8.cc#	-aus,
16cc#	her-
8.ee}	-aus!}
{16ee	{der
=46	=46
8.ee	Mai
16ee	ist
8gg#	kom-
16ff#	-men,
16ee	der
=47	=47
8ff#	Win-
16ee	-ter
16dd#	ist
8.ee	aus,
16b	dann
=48	=48
8.b	Blu2m-
16b	-lein
8ee	al-
16b	-le
16b	her-
=49	=49
8.b	-aus,
16b	her-
8.ee}	-aus!}
{16ee	{der
=50	=50
8.ee	Mai
16ee	ist
8gg#	kom-
16ff#	-men,
16ee#	der
=51	=51
8ff#	Win-
16ee	-ter
16dd#	ist
4ee}	aus.}
*-	*-
